X:1
T:Máire Rua
R:slip jig
M:9/8
L:1/8
K:G
|:DGG GAG FGA|~B2B GAB ~c2c|DGG GAG FGA|1 BAB cAF G2G:|2 BAB cAF GBc|]
|:~d2d cAG FDD|~d2d cAB ~c2c|ded cAG FGA|1 BAB cAF GBc:|2 BAB cAF G2G|]